svg/fluentui-system-icons/ic_fluent_compose_24_filled.svg

<svg width="24" height="24" viewBox="0 0 24 24" fill="none" xmlns="http://www.w3.org/2000/svg">
<path d="M11.9571 13.4571L21.7071 3.70711C22.0976 3.31658 22.0976 2.68342 21.7071 2.29289C21.3166 1.90237 20.6834 1.90237 20.2929 2.29289L10.5429 12.0429L10.25 13.75L11.9571 13.4571ZM6.5 3C4.567 3 3 4.567 3 6.5V17.5C3 19.433 4.567 21 6.5 21H17.5C19.433 21 21 19.433 21 17.5V10C21 9.44772 20.5523 9 20 9C19.4477 9 19 9.44772 19 10V17.5C19 18.3284 18.3284 19 17.5 19H6.5C5.67157 19 5 18.3284 5 17.5V6.5C5 5.67157 5.67157 5 6.5 5H14C14.5523 5 15 4.55228 15 4C15 3.44772 14.5523 3 14 3H6.5Z" fill="#212121"/>
</svg>

<svg xmlns="http://www.w3.org/2000/svg" width="24" height="24"><path d="m11.957 13.457 9.75-9.75a1 1 0 0 0-1.414-1.414l-9.75 9.75-.293 1.707 1.707-.293ZM6.5 3A3.5 3.5 0 0 0 3 6.5v11A3.5 3.5 0 0 0 6.5 21h11a3.5 3.5 0 0 0 3.5-3.5V10a1 1 0 1 0-2 0v7.5a1.5 1.5 0 0 1-1.5 1.5h-11A1.5 1.5 0 0 1 5 17.5v-11A1.5 1.5 0 0 1 6.5 5H14a1 1 0 1 0 0-2H6.5Z"/></svg>
